X:427
M:C
L:1/8
K:C
e/f/|g<c g>e g<c g>e|g<c g>e fd d/e/f|g<c g>e g<c g>e|f<a g>f e<c ce/f/|
g<c gf/e/ g<c gf/e/|g<c gf/e/ f<d de/f/|g<c gf/e/ g<c g>e|f<a g>f e<c c||
e|G>cE>c G>ce>c|G>cE>c d<D D>c|G>cE>c G>ce>c|f/g/a g>f e<c c>e|

